X: 34186
T: Reel Of Mullinavat, The
R: reel
M: 4/4
K: Eminor
ef|gfed BAGF|GBAG ~E3F|GEB,E GABd|eB{d}BA B2ef|
gfed edBc|BAGF ~E2EF|G2GF GABA|(3Bcd ed e2:|
ef|geBe gabg|afdf afdf|geBe ga(3bag|afdf gee2|
geBe gabg|afde fga>z|bg (3agf gfed|Bgfd e2||

